public/google logo.svg

<svg width="141" height="46" viewBox="0 0 141 46" fill="none" xmlns="http://www.w3.org/2000/svg">
<path d="M135.825 28.1124L139.714 30.7051C138.452 32.5643 135.433 35.754 130.213 35.754C123.731 35.754 118.904 30.7392 118.904 24.3599C118.904 17.5712 123.783 12.9658 129.667 12.9658C135.586 12.9658 138.486 17.6735 139.424 20.215L139.936 21.5114L124.687 27.8225C125.846 30.1081 127.655 31.268 130.213 31.268C132.772 31.268 134.546 30.0058 135.825 28.1124ZM123.868 24.0017L134.051 19.7716C133.488 18.3558 131.816 17.3495 129.821 17.3495C127.279 17.3495 123.748 19.601 123.868 24.0017Z" fill="#FF302F"/>
<path d="M111.553 1.3501H116.465V34.7136H111.553V1.3501Z" fill="#20B15A"/>
<path d="M103.81 13.8528H108.552V34.1165C108.552 42.5256 103.588 45.9881 97.7205 45.9881C92.194 45.9881 88.8679 42.2697 87.6228 39.2506L91.9723 37.4426C92.7569 39.3018 94.6502 41.5021 97.7205 41.5021C101.49 41.5021 103.81 39.1653 103.81 34.7987V33.1613H103.639C102.514 34.5258 100.364 35.7539 97.6352 35.7539C91.9382 35.7539 86.7188 30.7903 86.7188 24.394C86.7188 17.9635 91.9382 12.9487 97.6352 12.9487C100.347 12.9487 102.514 14.1598 103.639 15.4902H103.81V13.8528ZM104.151 24.394C104.151 20.3685 101.473 17.4347 98.0616 17.4347C94.6161 17.4347 91.7165 20.3685 91.7165 24.394C91.7165 28.3682 94.6161 31.2509 98.0616 31.2509C101.473 31.2679 104.151 28.3682 104.151 24.394Z" fill="#3686F7"/>
<path d="M59.751 24.3086C59.751 30.8755 54.6339 35.7027 48.357 35.7027C42.08 35.7027 36.9629 30.8585 36.9629 24.3086C36.9629 17.7075 42.08 12.8975 48.357 12.8975C54.6339 12.8975 59.751 17.7075 59.751 24.3086ZM54.7704 24.3086C54.7704 20.2149 51.8025 17.4005 48.357 17.4005C44.9114 17.4005 41.9435 20.2149 41.9435 24.3086C41.9435 28.3682 44.9114 31.2167 48.357 31.2167C51.8025 31.2167 54.7704 28.3682 54.7704 24.3086Z" fill="#FF302F"/>
<path d="M84.6377 24.3599C84.6377 30.9268 79.5206 35.754 73.2437 35.754C66.9667 35.754 61.8496 30.9268 61.8496 24.3599C61.8496 17.7588 66.9667 12.9658 73.2437 12.9658C79.5206 12.9658 84.6377 17.7418 84.6377 24.3599ZM79.6401 24.3599C79.6401 20.2662 76.6721 17.4518 73.2266 17.4518C69.7811 17.4518 66.8132 20.2662 66.8132 24.3599C66.8132 28.4195 69.7811 31.268 73.2266 31.268C76.6892 31.268 79.6401 28.4024 79.6401 24.3599Z" fill="#FFBA40"/>
<path d="M18.2343 30.7563C11.0874 30.7563 5.49274 24.9911 5.49274 17.8442C5.49274 10.6973 11.0874 4.93204 18.2343 4.93204C22.0892 4.93204 24.9036 6.45012 26.9846 8.39461L30.413 4.96616C27.5133 2.18587 23.6414 0.0708008 18.2343 0.0708008C8.4436 0.0708008 0.205078 8.05347 0.205078 17.8442C0.205078 27.6349 8.4436 35.6176 18.2343 35.6176C23.522 35.6176 27.5133 33.8778 30.6348 30.6369C33.8415 27.4302 34.8308 22.9272 34.8308 19.277C34.8308 18.1342 34.6943 16.9572 34.5408 16.0873H18.2343V20.8292H29.8501C29.509 23.7971 28.5709 25.8269 27.1892 27.2085C25.5177 28.8971 22.8738 30.7563 18.2343 30.7563Z" fill="#3686F7"/>
</svg>

<svg xmlns="http://www.w3.org/2000/svg" width="141" height="46" fill="none" viewBox="0 0 141 46"><path fill="#ff302f" d="m135.825 28.112 3.889 2.593c-1.262 1.86-4.281 5.049-9.501 5.049-6.482 0-11.309-5.015-11.309-11.394 0-6.789 4.879-11.394 10.763-11.394 5.919 0 8.819 4.708 9.757 7.249l.512 1.296-15.249 6.312c1.159 2.285 2.968 3.445 5.526 3.445 2.559 0 4.333-1.262 5.612-3.156m-11.957-4.11 10.183-4.23c-.563-1.416-2.235-2.422-4.23-2.422-2.542 0-6.073 2.251-5.953 6.652"/><path fill="#20b15a" d="M111.553 1.35h4.912v33.364h-4.912z"/><path fill="#3686f7" d="M103.81 13.853h4.742v20.264c0 8.409-4.964 11.871-10.832 11.871-5.526 0-8.852-3.718-10.097-6.737l4.35-1.808c.784 1.859 2.677 4.06 5.748 4.06 3.769 0 6.089-2.338 6.089-6.704V33.16h-.171c-1.125 1.365-3.275 2.593-6.004 2.593-5.697 0-10.916-4.964-10.916-11.36 0-6.43 5.22-11.445 10.916-11.445 2.712 0 4.879 1.21 6.004 2.541h.171zm.341 10.541c0-4.025-2.678-6.96-6.09-6.96-3.445 0-6.345 2.935-6.345 6.96 0 3.974 2.9 6.857 6.346 6.857 3.411.017 6.089-2.883 6.089-6.857"/><path fill="#ff302f" d="M59.751 24.309c0 6.566-5.117 11.394-11.394 11.394s-11.394-4.845-11.394-11.394c0-6.602 5.117-11.411 11.394-11.411s11.394 4.81 11.394 11.41m-4.98 0c0-4.094-2.968-6.908-6.414-6.908s-6.413 2.814-6.413 6.908c0 4.06 2.967 6.908 6.413 6.908s6.413-2.849 6.413-6.908"/><path fill="#ffba40" d="M84.638 24.36c0 6.567-5.117 11.394-11.394 11.394S61.85 30.927 61.85 24.36c0-6.601 5.117-11.394 11.394-11.394s11.394 4.776 11.394 11.394m-4.998 0c0-4.094-2.968-6.908-6.413-6.908s-6.414 2.814-6.414 6.908c0 4.06 2.968 6.908 6.414 6.908 3.462 0 6.413-2.866 6.413-6.908"/><path fill="#3686f7" d="M18.234 30.756c-7.147 0-12.741-5.765-12.741-12.912S11.087 4.932 18.234 4.932c3.855 0 6.67 1.518 8.75 3.463l3.429-3.429c-2.9-2.78-6.772-4.895-12.179-4.895C8.444.07.205 8.053.205 17.844c0 9.79 8.239 17.774 18.03 17.774 5.287 0 9.278-1.74 12.4-4.981 3.207-3.207 4.196-7.71 4.196-11.36 0-1.143-.137-2.32-.29-3.19H18.234v4.742H29.85c-.341 2.968-1.28 4.998-2.66 6.38-1.672 1.688-4.316 3.547-8.956 3.547"/></svg>
